X: 158
T: Greenland Whale Fisheries
M:4/4
R:song
L:1/8
Z:added by Alf warnock alf0@rogers.com - www.alfwarnock.info/alfs
K:D
"D"D4 D4| A,4 F4| "A7"E4 D2C2|"D"D6F2|
"G"G4 G4| "D"F4 E2D2|"A7"E8-|E4 F2G2|
"D"A4 F2E2|D4 E2F2|"G"G2F2 E2D2|"Em"B,8|
"D"D6E2|F4 F4| "A7"E4 D2C2|"D"D4 B,4|
"D"A,8| D6E2|F4 F4| "A7"E4 D2C2|"D"D8|z8|]
%%text 1 octave higher
"D"d4 d4|A4 f4|"A7"e4 d2c2|"D"d6f2|
"G"g4 g4|"D"f4 e2d2|"A7"e8-|e4 f2g2|
"D"a4 f2e2|d4 e2f2|"G"g2f2 e2d2|"Em"B8|
"D"d6e2|f4 f4|"A7"e4 d2c2|"D"d4 B4|
"D"A8|d6e2|f4 f4|"A7"e4 d2c2|"D"d8|z8|]

